!!!COM:	Josquin des Prez
!!!CDT:	~1450-1521/08/27
!!!OPR:	Missa L'homme arm&eacute; super voces musicales
!!!ONM:	5
!!!OTL:	Agnus Dei
!!!AGN:	Mass; Agnus Dei
!!!SCT:	NJE 6.3
!!!SCA:	New Josquin Edition 6.3
!!!voices: 4
!!!voices-OPR:	4
**kern	**kern	**kern	**kern
*staff4	*staff3	*staff2	*staff1
*Ivox	*Ivox	*Ivox	*Ivox
*I"Bassus	*I"Tenor	*I"Altus	*I"Superius
*I'B	*I'T	*I'A	*I'S
*>[A,B,C]	*>[A,B,C]	*>[A,B,C]	*>[A,B,C]
*>Agnus1[A]	*>Agnus1[A]	*>Agnus1[A]	*>Agnus1[A]
*>Agnus2[B]	*>Agnus2[B]	*>Agnus2[B]	*>Agnus2[B]
*>Agnus3[C]	*>Agnus3[C]	*>Agnus3[C]	*>Agnus3[C]
*>A	*>A	*>A	*>A
*clefF4	*clefGv2	*clefGv2	*clefG2
*k[]	*k[]	*k[]	*k[]
*	*rscale:1/2	*	*
*M3/1	*M9/1	*M3/1	*M3/1
*met(O)	*met(O.)	*met(O)	*met(O)
!!primary-mensuration: met(O)
!!!OMD: Agnus Dei I
!!section: Agnus Dei I
=1-	=1-	=1-	=1-
0.r	0.r	0.A	0a
.	.	.	1cc
=2	=2-	=2	=2
0.r	0.r	0d	2b\
.	.	.	1a
.	.	.	2g/
.	.	1d	1f
=3	=3-	=3	=3
0.E	0.r	1c	2.e/
.	.	.	4f/
.	.	0B	2g/
.	.	.	1a
.	.	.	2g#i/
=4	=4	=4	=4
0A	0.r	1A	1a
.	.	1r	1.cc
1A	.	1e	.
.	.	.	2b\
=5	=5-	=5	=5
1G	0.r	1e	1b
0F	.	1A	2a/
.	.	.	1cc
.	.	1r	.
.	.	.	4b\
.	.	.	4a/
=6	=6-	=6	=6
0E	0.r	0e	2.g/
.	.	.	4a/
.	.	.	2b\
.	.	.	1cc
1r	.	1e	.
.	.	.	4b\
.	.	.	4a/
=7	=7	=7	=7
0E	0G	2.e\	2b\
.	.	.	2e/
.	.	4d\	.
.	.	2e\	2.g/
.	.	2c\	.
.	.	.	4a/
1E	1G	1B	1b
=8	=8-	=8	=8
2AA/	0.c	2.A/	2.cc\
2.A\	.	.	.
.	.	4B\	4b\
.	.	4c\	2a/
4G\	.	4d\	.
2E\	.	2e\	2g/
2.F\	.	2A/	2.a/
.	.	[2c\	.
4E\	.	.	4g/
=9	=9-	=9	=9
1C	1c	4c\]	1e
.	.	4B\	.
.	.	4A/	.
.	.	4G/	.
2D\	0B	2F/	2f/
2.E\	.	2E/	2.g/
.	.	2.G/	.
4D\	.	.	4f/
2BB/	.	.	2d/
.	.	4F/	.
=10	=10	=10	=10
2C/	0A	2E/	2e/
2.D\	.	2D/	2.f/
.	.	2.F/	.
4C/	.	.	4e/
2AA/	.	.	2c/
.	.	4E/	.
1BB	1G	4D/	1d
.	.	4C/	.
.	.	2D/	.
=11	=11-	=11	=11
2AA/	0.A	2E/	2.a/
1D	.	2.F/	.
.	.	.	4g/
.	.	.	2f/
.	.	4D/	.
2C/	.	2E/	2e/
2D\	.	2.F/	2d/
2AA/	.	.	2c/
.	.	4E/	.
=12	=12-	=12	=12
2BB/	0G	2D/	2d/
2.C/	.	4C/	2.e/
.	.	4D/	.
.	.	4E/	.
4BB/	.	4F/	4d/
2GG/	.	2.G/	2B/
1AA	1r	.	2c/
.	.	4E/	.
.	.	2F#i/	2A/
=13	=13	=13	=13
2GG/	1d	2.G/	2.B/
2.G\	.	.	.
.	.	4A/	4c/
.	1d	4B\	4d/
4F\	.	4c\	4e/
2D\	.	2.d\	2f/
2.E-\	1G	.	2.g/
.	.	4B-i\	.
.	.	2c\	.
4D\	.	.	4f/
=14	=14-	=14	=14
2BB-i/	1r	1d	1f
2.B-\	.	.	.
.	0d	2G/	1r
4A\	.	.	.
2F\	.	2A/	.
2.G\	.	1B-	1g
4F\	.	.	.
=15	=15-	=15	=15
1D	1d	1A	2.a/
.	.	.	4g/
2r	1.d	1D	2a/
2.d\	.	.	2.b-i\
.	.	1r	.
4c\	.	.	4a/
2A\	2c\	.	[2a/
=16	=16	=16	=16
2.B-i\	1d	1r	2a/]
.	.	.	2g/
4A\	.	.	.
2F\	1.c	1A	1.a
2.A\	.	.	.
.	.	2F/	.
4G\	.	.	.
2E\	2B\	2G/	2g/
=17	=17-	=17	=17
2F\	2A/	2D/	2f/
2.C/	2G/	2.E/	2.e/
.	2A/	.	.
4D\	.	4F/	4d/
2BB/	2G/	2D/	1d
1AA	1A	[1E	.
.	.	.	2c/
=18	=18-	=18	=18
2r	0.G	1E]	1B
2.E\	.	.	.
.	.	2C/	1r
4D\	.	.	.
2BB/	.	2D/	.
2.C/	.	2E/	1e
.	.	[2G/	.
4BB/	.	.	.
=19	=19	=19	=19
*	*M6/1	*	*
*	*met(C.)	*	*
2GG/	0.r	4G/]	2d/
.	.	4F/	.
2.D\	.	4D/	2.f/
.	.	4E/	.
.	.	4F/	.
4C/	.	4G/	4e/
2AA/	.	1A	2c/
2.BB-/	.	.	1d
.	.	2G/	.
4AA/	.	.	.
=20	=20-	=20	=20
2FF/	0.r	2.c\	2.a/
2.F\	.	.	.
.	.	4B\	4g/
.	.	2A/	4f/
4C/	.	.	4e/
2C/	.	2G/	1e
2.D\	.	1F	.
.	.	.	2d/
4AA/	.	.	.
=21	=21	=21	=21
2AA/	0.r	2.c\	2.a/
2.A\	.	.	.
.	.	4B\	4g/
.	.	2A/	4f/
4G\	.	.	4e/
2E\	.	2G/	1e
2.F\	.	4F/	.
.	.	4G/	.
.	.	4A/	2d/
4E\	.	4B\	.
=22	=22-	=22	=22
2C/	0g	2c\	2.g/
2.G\	.	2.B-i\	.
.	.	.	4f/
.	.	.	4e/
4F\	.	4A/	4d/
4E\	.	4G/	1d
4D\	.	4F/	.
1E	1g	1G	.
.	.	.	2c#i/
=23	=23	=23	=23
0.D	0f	0A	1d
.	.	.	2r
.	.	.	2.d/
.	1f	1d	.
.	.	.	4e/
.	.	.	4f/
.	.	.	4d/
=24	=24-	=24	=24
0.r	1g	1.c	2e/
.	.	.	2.c/
.	0e	.	.
.	.	.	4d/
.	.	4B\	4e/
.	.	4A/	4f/
.	.	2G/	2g/
.	.	2A/	2c/
=25	=25	=25	=25
1r	0.d	2.D/	1.f
.	.	4E/	.
2r	.	4F/	.
.	.	4D/	.
2.D\	.	2.d\	4e/
.	.	.	4d/
.	.	.	1a
4E\	.	4c\	.
4F\	.	4A/	.
4D\	.	4d\	.
=26	=26-	=26	=26
2E\	0g	2G/	0.r
2.C/	.	2.c\	.
4D\	.	4B\	.
4E\	.	4G/	.
4F\	.	4A/	.
2G\	1g	2B\	.
2C/	.	[2c\	.
=27	=27	=27	=27
1.F	0f	4c\]	1.a
.	.	4A/	.
.	.	2A/	.
.	.	2r	.
2D\	.	2.d\	1.a
1D	1f	.	.
.	.	4e\	.
.	.	4f\	.
.	.	4d\	.
=28	=28-	=28	=28
0.r	1g	2e\	1.g
.	.	2.c\	.
.	0e	.	.
.	.	4d\	.
.	.	4e\	1.g
.	.	4f\	.
.	.	2g\	.
.	.	2c\	.
=29	=29	=29	=29
1r	0.d	1.f	1.a
2r	.	.	.
2.D\	.	2d\	1.f
.	.	1d	.
4E\	.	.	.
4F\	.	.	.
4D\	.	.	.
=30	=30-	=30	=30
2E\	0.g	2B\	1e
2.C/	.	2.c\	.
.	.	.	2r
4D\	.	4B\	.
4E\	.	4G/	2e/
4F\	.	4A/	.
2G\	.	2B\	2d/
2C/	.	[2c\	2e/
=31	=31	=31	=31
1F	0.a	4c\]	0A
.	.	4B\	.
.	.	4A/	.
.	.	4G/	.
2r	.	1F	.
2.D\	.	.	.
.	.	2r	2r
4E\	.	.	.
4F\	.	2d\	2f/
4D\	.	.	.
=32	=32-	=32	=32
2E\	1g	2B\	2g/
2C/	.	2c\	2.e/
2D\	1f	2A/	.
.	.	.	4d/
2BB/	.	2B\	1d
2C/	1e	2G/	.
2AA/	.	2A/	2c/
=33	=33	=33	=33
2BB/	0.d	2F/	2d/
2GG/	.	2G/	2B/
2r	.	2.D/	1A
2.D\	.	.	.
.	.	4E/	.
.	.	4F/	2r
4E\	.	4G/	.
4F\	.	2A/	2f/
4D\	.	.	.
=34	=34-	=34	=34
2E\	0.r	2G/	2g/
2C/	.	2A/	2.e/
2D\	.	2F/	.
.	.	.	4d/
2BB/	.	2D/	1d
1AA	.	1E	.
.	.	.	2c#i/
=35	=35	=35	=35
0.Dl	0.r	0.Dl	0.dl
*	*rscale:1	*	*
!!LO:LB:g=z
=36||	=36||	=36||	=36||
*>B	*>B	*>B	*>B
*clefF4	*clefGv2	*clefGv2	*clefG2
*k[]	*k[]	*k[]	*k[]
*rscale:1	*	*rscale:1/2	*rscale:3/2
*M2/1	*M2/1	*M2/1	*M2/1
*met(C|)	*met(C|)	*met(C)	*met(3)
!!primary-mensuration: met(C|)
!!!OMD: Agnus Dei II
!!section: Agnus Dei II
!	!	!	!LO:TX:X=-50:Z=6:t=Canon&colon; Trintas.  3-ex-1 mensuration canon.
1D	0r	0A	3%2d
.	.	.	3%2d
1D	.	.	.
.	.	.	3%2d
=37	=37	=37-	=37
1D	0r	0A	1f
[1F	.	.	3d/
.	.	.	2f/
.	.	.	6g/
=38	=38	=38	=38
2F\]	0r	0A	3%4a
2D\	.	.	.
2.F\	.	.	.
.	.	.	3%2a
4G\	.	.	.
=39	=39	=39-	=39
0A	0r	[0c	1a
.	.	.	3g/
.	.	.	3%2f
=40	=40	=40	=40
1A	0r	1c]	3%2e
.	.	.	1c
[1A	.	1A	.
.	.	.	3A/
=41	=41	=41-	=41
2A\]	0r	1.c	3%2A
2G\	.	.	.
.	.	.	3%2r
1F	.	.	.
.	.	.	3%2a
.	.	2d\	.
=42	=42	=42	=42
!	!	!LO:N:vis=0	!
1E	0r	[y0e	3%2g
.	.	.	1e
[1C	.	.	.
.	.	.	3f/
=43	=43	=43-	=43
2C/]	0r	0e]yy	3%2g
2AA/	.	.	.
.	.	.	3%4c
1AA	.	.	.
=44	=44	=44	=44
1r	0r	0e	3%2g
.	.	.	1e
1A	.	.	.
.	.	.	3f/
=45	=45	=45-	=45
1G	0r	[0e	3%4g
[1E	.	.	.
.	.	.	3%2r
=46	=46	=46	=46
2E\]	0r	1e]	3%2g
2F\	.	.	.
.	.	.	3%2g
1G	.	1d	.
.	.	.	3%2g
=47	=47	=47-	=47
0C	0r	0c	1e
.	.	.	3c/
.	.	.	3%2c
=48	=48	=48	=48
1G	0r	0B	3%2r
.	.	.	3%2g
[1E	.	.	.
.	.	.	3%2g
=49	=49	=49-	=49
2E\]	0r	[0G	1g
2F\	.	.	.
[1G	.	.	3f/
.	.	.	3%2e
=50	=50	=50	=50
1G]	0r	1G]	3%2d
.	.	.	1g
1r	.	1E	.
.	.	.	3a/
=51	=51	=51-	=51
1G	0r	0E	2b\
.	.	.	6a/
.	.	.	3b\
1G	.	.	3%2g
.	.	.	6f/
.	.	.	6e/
=52	=52	=52	=52
1G	0r	0r	3%2d
.	.	.	3%4g
[1E	.	.	.
=53	=53	=53-	=53
2E\]	0r	0e	3%2g
2C/	.	.	.
.	.	.	3%4g
1C	.	.	.
=54	=54	=54	=54
1r	0r	0d	3%2f
.	.	.	3%2d
1G	.	.	.
.	.	.	3%2g
=55	=55	=55-	=55
1G	0r	[0B	3%2d
.	.	.	3%2g
[1G	.	.	.
.	.	.	3%2d
=56	=56	=56	=56
2G\]	0r	1B]	3%2g
2F\	.	.	.
.	.	.	3%2r
1E	.	1c	.
.	.	.	3%2g
=57	=57	=57-	=57
1D	0r	0d	3%2f
.	.	.	3%2d
[1G	.	.	.
.	.	.	3%2g
=58	=58	=58	=58
!	!	!LO:N:vis=0	!
2G\]	0r	[y0G	3%2d
2A\	.	.	.
.	.	.	3%2g
2.B\	.	.	.
.	.	.	3%2d
4A\	.	.	.
=59	=59	=59-	=59
2B\	0r	0G]yy	3%2g
1G	.	.	.
.	.	.	3%2d
.	.	.	3%2g
4F\	.	.	.
4E\	.	.	.
=60	=60	=60	=60
!LO:N:vis=1	!	!LO:N:vis=1	!
0D	0r	0d	0fl
!!LO:LB:g=z
*rscale:1	*rscale:1	*rscale:1	*rscale:1
=61||	=61||	=61||	=61||
*>C	*>C	*>C	*>C
!!section: Agnus Dei III
!!!OMD: Agnus Dei III
*clefF4	*clefGv2	*clefGv2	*clefG2
*k[]	*k[b-]	*k[]	*k[]
*	*	*	*rscale:1/4
*M2/1	*M2/1	*M2/1	*M9/0
*met(C|)	*met(C|)	*met(C|)	*met(O.)
!!primary-mensuration: met(C|)
!	!	!	!LO:TX:X=-50:Z=6:t=Canon&colon; Tenor. Clama ne cesses.   Verbal canon instructs superius to omit all rests.
!	!	!	!LO:N:vis=1
2.AA/	0r	0r	[y0A
4BB/	.	.	.
4C/	.	.	.
4AA/	.	.	.
[2D\	.	.	.
=62	=62	=62	=62-
2D\]	1r	1r	0A]yy
2C#i/	.	.	.
1D	2r	2.A/	.
.	[2F/	.	.
.	.	4B\	.
=63	=63	=63	=63-
0r	2F/]	4c\	0A
.	.	4A/	.
.	4E/	1d	.
.	4D/	.	.
.	1A	.	.
.	.	2c#i\	.
=64	=64	=64	=64-
!	!	!	!LO:N:vis=1.
2.D\	0r	1d	[y0d
4E\	.	.	.
4F\	.	1r	.
4D\	.	.	.
[2G\	.	.	.
=65	=65	=65	=65-
2G\]	1r	1r	0d_yy
2F#i\	.	.	.
1G	2r	2.d\	.
.	[2B-\	.	.
.	.	4e\	.
=66	=66	=66	=66-
1r	2B-\]	4f\	0d]yy
.	.	4d\	.
.	4A/	1g	.
.	4G/	.	.
1D	1d	.	.
.	.	2f#i\	.
=67	=67	=67	=67-
2.G\	1B-	2g\	0d
.	.	2.d\	.
4F\	.	.	.
2.D\	2.d\	.	.
.	.	4e\	.
.	.	[2f\	.
4E\	4c\	.	.
=68	=68	=68	=68-
!	!	!	!LO:N:vis=1
2.F\	2.A/	4f\]	[y0c
.	.	4e\	.
.	.	1c	.
4G\	4Bni\	.	.
1A	2.c\	.	.
.	.	4B\	.
.	4d\	4A/	.
=69	=69	=69	=69-
2r	1e	2.c\	0c]yy
2AA/	.	.	.
.	.	4d\	.
2.C/	[1E	[1e	.
4D\	.	.	.
=70	=70	=70	=70
!	!	!	!LO:N:vis=1
0E	2E/]	1e]	[y0B
.	2F/	.	.
.	1G	2r	.
.	.	2e\	.
=71	=71	=71	=71-
2r	1E	2.g\	0B]yy
2E\	.	.	.
.	.	4f\	.
2.G\	2.Bni\	2d\	.
.	.	2e\	.
4F\	4c\	.	.
=72	=72	=72	=72-
2.D\	2d\	2f\	0A
.	1c	1e	.
4E\	.	.	.
1F	.	.	.
.	4Bni\	2d\	.
.	4A/	.	.
=73	=73	=73	=73-
!	!	!	!LO:N:vis=1.
0E	0G	0e	[y0B
=74	=74	=74	=74-
1r	1E	1.g	0B_yy
1E	[1G	.	.
.	.	2f\	.
=75	=75	=75	=75-
*	*k[]	*	*
1.G	2G/]	1.d	0B]yy
.	2A/	.	.
.	2.B\	.	.
2F\	.	2e\	.
.	4c\	.	.
=76	=76	=76	=76-
!	!	!	!LO:N:vis=1.
2.D\	2.d\	1.f	[y0A
4E\	4c\	.	.
2.F\	2.A/	.	.
.	.	2e\	.
4G\	4B\	.	.
=77	=77	=77	=77-
2.A\	0c	2.c\	0A_yy
4B\	.	4d\	.
2c\	.	4e\	.
.	.	4d\	.
[2A\	.	[2f\	.
=78	=78	=78	=78-
4A\]	1r	4f\]	0A]yy
4G\	.	4e\	.
4F\	.	2d\	.
4E\	.	.	.
1F	1A	2c\	.
.	.	2d\	.
=79	=79	=79	=79
0E	2.B\	0G	0e
.	4A/	.	.
.	2B\	.	.
.	[2c\	.	.
=80	=80	=80	=80-
0r	2c\]	1A	0e
.	4B\	.	.
.	4A/	.	.
.	2G/	2B\	.
.	[2A/	[2c\	.
=81	=81	=81	=81-
1r	4A/]	4c\]	0A
.	4G/	4B\	.
.	4F/	4A/	.
.	4E/	4G/	.
1A	1F	2A/	.
.	.	2D/	.
=82	=82	=82	=82-
!	!	!	!LO:N:vis=1.
2.B\	0E	1G	[y0e
4A\	.	.	.
2B\	.	1r	.
[2c\	.	.	.
=83	=83	=83	=83-
2c\]	0r	1A	0e_yy
4B\	.	.	.
4A\	.	.	.
2.G\	.	2.B\	.
4F\	.	4A/	.
=84	=84	=84	=84-
2G\	1r	2B\	0e]yy
1A	.	1c	.
.	1A	.	.
4G\	.	4B\	.
4F\	.	4A/	.
=85	=85	=85	=85-
1.E	2.B\	2.G/	0e
.	4A/	4F/	.
.	2B\	2G/	.
2AA/	[2c\	[2A/	.
=86	=86	=86	=86-
!	!	!	!LO:N:vis=2.
1AA	2c\]	2A/]	[y0e
.	4B\	4G/	.
.	4A/	4F/	.
1r	2G/	2E/	.
.	[2A/	[2c\	.
=87	=87	=87	=87-
0r	4A/]	4c\]	1e]yy
.	4G/	4B\	.
.	4F/	4A/	.
.	4E/	4G/	.
.	1F	2.A/	1d
.	.	4B\	.
=88	=88	=88	=88
2r	0E	1c	0e
2.C/	.	.	.
.	.	2r	.
4D\	.	.	.
4E\	.	[2G/	.
4F\	.	.	.
=89	=89	=89	=89-
!	!	!	!LO:N:vis=2.
2.G\	1r	4G/]	[y0d
.	.	4A/	.
.	.	4B\	.
4F\	.	4c\	.
1D	2r	1d	.
.	[2D/	.	.
=90	=90	=90	=90-
1r	4D/]	2r	1d]yy
.	4E/	.	.
.	4F/	2.A/	.
.	4G/	.	.
2r	2.A/	.	1c
.	.	4B\	.
2A\	.	4c\	.
.	4G/	4d\	.
=91	=91	=91	=91-
2G\	1E	1e	1B
2E\	.	.	.
1F	2r	2.c\	1A
.	2A/	.	.
.	.	4d\	.
=92	=92	=92	=92-
1E	2G/	4e\	1B
.	.	4f\	.
.	2E/	1e	.
1r	1F	.	1A
.	.	2d\	.
=93	=93	=93	=93-
1r	0E	0e	0B
2r	.	.	.
2E\	.	.	.
=94	=94	=94	=94-
!	!	!	!LO:N:vis=1.
2F\	0r	1r	[y0A
1D	.	.	.
.	.	2r	.
2C/	.	2e\	.
=95	=95	=95	=95-
2D\	1r	2f\	0A_yy
1F	.	1d	.
.	2r	.	.
2E\	2e\	2c\	.
=96	=96	=96	=96-
2.D\	2f\	2d\	0A]yy
.	1d	1f	.
4C/	.	.	.
1AA	.	.	.
.	2c\	2e\	.
=97	=97	=97	=97
*	*	*	*M6/0
*	*	*	*met(C.)
!	!	!	!LO:N:vis=1
0r	2d\	2.d\	[y0a
.	1f	.	.
.	.	4c\	.
.	.	2A/	.
.	2e\	2c\	.
=98	=98	=98	=98-
1r	2.d\	2d\	0a]yy
.	.	2f\	.
.	4c\	.	.
2r	2A/	2e\	.
[2D\	[2d\	[2f\	.
=99	=99	=99	=99-
4D\]	4d\]	1f]	0a
4E\	4c\	.	.
4F\	2d\	.	.
4G\	.	.	.
2A\	2c\	2e\	.
2F\	2d\	2f\	.
=100	=100	=100	=100-
!	!	!	!LO:N:vis=1
2G\	2.B\	2d\	[y0g
2E\	.	2e\	.
.	4G/	.	.
1E	1G	2r	.
.	.	[2e\	.
=101	=101	=101	=101-
1r	2r	1e]	0g]yy
.	2c\	.	.
2r	2B\	2d\	.
[2C/	[2c\	[2e\	.
=102	=102	=102	=102-
4C/]	4c\]	1e]	0g
4D\	4B\	.	.
4E\	2c\	.	.
4F\	.	.	.
2G\	2B\	2d\	.
2E\	2c\	2e\	.
=103	=103	=103	=103
2F\	2.A/	2c\	0a
2D\	.	2d\	.
.	4F/	.	.
1D	1F	2r	.
.	.	[2d\	.
=104	=104	=104	=104-
!	!	!	!LO:N:vis=1
1r	2r	1d]	[y0f
.	2B-\	.	.
2r	2A/	2c\	.
[2BB-/	[2B-i\	[2d\	.
=105	=105	=105	=105-
4BB-/]	4B-\]	1d]	0f]yy
4C/	4A/	.	.
4D\	2B-i\	.	.
4E\	.	.	.
2F\	2A/	2c\	.
2D\	2B-i\	2d\	.
=106	=106	=106	=106-
!	!	!	!LO:N:vis=1.
2E\	2.G/	2B\	[y0e
2C/	.	2c\	.
.	4E/	.	.
1C	1E	2r	.
.	.	[2c\	.
=107	=107	=107	=107-
1r	2r	1c]	0e_yy
.	2A/	.	.
2r	2G/	2B\	.
[2AA/	[2A/	[2c\	.
=108	=108	=108	=108-
4AA/]	4A/]	1c]	0e]yy
4BB/	4G/	.	.
4C/	2A/	.	.
4D\	.	.	.
2E\	2G/	2B\	.
2C/	2A/	2c\	.
=109	=109	=109	=109
!	!	!	!LO:N:vis=1
[0D	2.F/	2A/	[y0a
.	.	1f	.
.	4D/	.	.
.	1D	.	.
.	.	4e\	.
.	.	4d\	.
=110	=110	=110	=110-
1D]	0A	2.f\	0a]yy
.	.	4e\	.
2r	.	[1c	.
[2A\	.	.	.
=111	=111	=111	=111-
2A\]	2r	0c]	0a
4G\	1c	.	.
4F\	.	.	.
2.A\	.	.	.
.	4B\	.	.
4G\	4A/	.	.
=112	=112	=112	=112-
!	!	!	!LO:N:vis=1
[0E	2c\	2r	[y0g
.	2B\	1e	.
.	[1G	.	.
.	.	4d\	.
.	.	4c\	.
=113	=113	=113	=113-
1E]	0G]	2.e\	0g]yy
.	.	4d\	.
2r	.	[1B	.
[2G\	.	.	.
=114	=114	=114	=114-
2G\]	0r	0B]	0g
4F\	.	.	.
4E\	.	.	.
2.G\	.	.	.
4F\	.	.	.
=115	=115	=115	=115
[0D	0r	1r	0a
.	.	2r	.
.	.	[2d\	.
=116	=116	=116	=116-
!	!	!	!LO:N:vis=1
1D]	0r	2d\]	[y0f
.	.	4c\	.
.	.	4B\	.
2r	.	2.d\	.
[2F\	.	.	.
.	.	4c\	.
=117	=117	=117	=117-
2F\]	2r	0A	0f]yy
4E\	1A	.	.
4D\	.	.	.
2.F\	.	.	.
.	4G/	.	.
4E\	4F/	.	.
=118	=118	=118	=118-
!	!	!	!LO:N:vis=1.
[0C	2A/	2r	[y0e
.	2G/	1c	.
.	1E	.	.
.	.	4B\	.
.	.	4A/	.
=119	=119	=119	=119-
0C_	2r	2.c\	0e_yy
.	1c	.	.
.	.	4B\	.
.	.	2G/	.
.	4B\	2A/	.
.	4A/	.	.
=120	=120	=120	=120-
0C]	2.c\	2E/	0e]yy
.	.	2.c\	.
.	4B\	.	.
.	1G	.	.
.	.	4d\	.
.	.	2e\	.
=121	=121	=121	=121
*	*k[b-]	*	*
!	!	!	!LO:N:vis=1.
0r	[0F	2A/	[y0a
.	.	1f	.
.	.	4e\	.
.	.	4d\	.
=122	=122	=122	=122-
2r	0F]	2.f\	0a_yy
1F	.	.	.
.	.	4e\	.
.	.	2c\	.
4E\	.	2d\	.
4D\	.	.	.
=123	=123	=123	=123-
2.F\	0c	1A	0a]yy
4E\	.	.	.
1C	.	1e	.
=124	=124	=124	=124-
!	!	!	!LO:N:vis=1.
1.BB-	1d	2.f\	[y0b-i
.	.	4e\	.
.	[1B-	4d\	.
.	.	4c\	.
2GG/	.	[2d\	.
=125	=125	=125	=125-
0GG	2B-\]	2d\]	0b-_yy
.	2G/	1B-	.
.	1G	.	.
.	.	4A/	.
.	.	4G/	.
=126	=126	=126	=126-
0r	2r	1G	0b-]yy
.	2.G/	.	.
.	.	1r	.
.	4F/	.	.
.	2G/	.	.
=127	=127	=127	=127
2r	4A/	0r	0a
.	4G/	.	.
2.D\	4F/	.	.
.	4E/	.	.
.	1F	.	.
4C/	.	.	.
2D\	.	.	.
=128	=128	=128	=128-
4E\	0r	0r	0g
4D\	.	.	.
4C/	.	.	.
4BB/	.	.	.
1C	.	.	.
=129	=129	=129	=129-
0r	0r	2r	0f
.	.	2.d\	.
.	.	4c\	.
.	.	2d\	.
=130	=130	=130	=130-
!	!	!	!LO:N:vis=1.
0r	1r	4e\	[y0e
.	.	4d\	.
.	.	4c\	.
.	.	4B\	.
.	2r	1c	.
.	[2A/	.	.
=131	=131	=131	=131-
1r	4A/]	0r	0e_yy
.	4G/	.	.
.	4A/	.	.
.	4Bni\	.	.
[1AA	2c\	.	.
.	[2A/	.	.
=132	=132	=132	=132-
2AA/]	2A/]	1r	0e]yy
2BB/	4G/	.	.
.	4F/	.	.
1C	1E	[1A	.
=133	=133	=133	=133
*	*	*	*M9/0
*	*	*	*met(O.)
!	!	!	!LO:N:vis=1.
1r	1F	2A/]	[y0A
.	.	2B\	.
[1AA	1E	1c	.
=134	=134	=134	=134-
2AA/]	2F/	1r	0A_yy
2BB/	2D/	.	.
1C	1E	[1A	.
=135	=135	=135	=135-
1D	1.F	2A/]	0A]yy
.	.	2B\	.
1r	.	1c	.
.	2E/	.	.
=136	=136	=136	=136-
!	!	!	!LO:N:vis=1.
1r	1D	1d	[y0A
[1AA	1C	1r	.
=137	=137	=137	=137-
2AA/]	1F	1r	0A_yy
2BB/	.	.	.
1C	1E	[1A	.
=138	=138	=138	=138-
1D	2F/	2A/]	0A]yy
.	2D/	2B\	.
1AA	1E	1c	.
=139	=139	=139	=139-
*	*k[]	*	*
!	!	!	!LO:N:vis=1.
1r	1.D	1d	[y0A
[1D	.	1A	.
.	2E/	.	.
=140	=140	=140	=140-
2D\]	1F	1r	0A_yy
2E\	.	.	.
1F	1r	[1d	.
=141	=141	=141	=141-
1r	1.D	2d\]	0A]yy
.	.	2e\	.
[1D	.	1f	.
.	2E/	.	.
=142	=142	=142	=142
!	!	!	!LO:N:vis=1.
2D\]	1F	1r	[y0d
2E\	.	.	.
1F	2D/	[1d	.
.	2A/	.	.
=143	=143	=143	=143-
1G	2B\	2d\]	0d_yy
.	2G/	2e\	.
1D	1A	1f	.
=144	=144	=144	=144-
2r	1G	1g	0d]yy
2.G\	.	.	.
.	2r	2.G/	.
4A\	.	.	.
2B\	[2G/	.	.
.	.	4A/	.
=145	=145	=145	=145-
2r	4G/]	4B\	0d
.	4A/	4c\	.
2.G\	4B\	2d\	.
.	4c\	.	.
.	2d\	2G/	.
4A\	.	.	.
2B\	2G/	2g\	.
=146	=146	=146	=146-
!	!	!	!LO:N:vis=1
2c\	1A	2e\	[y0c
2.F\	.	2f\	.
.	2r	2.F/	.
4G\	.	.	.
2A\	[2F/	.	.
.	.	4G/	.
=147	=147	=147	=147-
2r	4F/]	4A/	0c]yy
.	4G/	4B\	.
2.F\	4A/	2c\	.
.	4B\	.	.
.	2c\	2F/	.
4G\	.	.	.
2A\	2F/	2f\	.
=148	=148	=148	=148-
!	!	!	!LO:N:vis=1.
2B\	1G	2d\	[y0B
2.E\	.	2e\	.
.	2r	2.E/	.
4F\	.	.	.
2G\	[2E/	.	.
.	.	4F/	.
=149	=149	=149	=149-
2r	4E/]	2G/	0B_yy
.	4F/	.	.
2.E\	2G/	2r	.
.	2r	2.E/	.
4F\	.	.	.
4G\	[2E/	.	.
4A\	.	4F/	.
=150	=150	=150	=150-
2B\	4E/]	4G/	0B]yy
.	4F/	4A/	.
2.E\	4G/	2B\	.
.	4A/	.	.
.	2B\	2E/	.
4F\	.	.	.
2G\	2E/	2e\	.
=151	=151	=151	=151
!	!	!	!LO:N:vis=1.
2A\	1F	2c\	[y0A
2.D\	.	2d\	.
.	2r	2.D/	.
4E\	.	.	.
2F\	[2D/	.	.
.	.	4E/	.
=152	=152	=152	=152-
2r	4D/]	2F/	0A_yy
.	4E/	.	.
2.D\	2F/	2r	.
.	2r	2.D/	.
4E\	.	.	.
4F\	[2D/	.	.
4G\	.	4E/	.
=153	=153	=153	=153-
2A\	4D/]	4F/	0A]yy
.	4E/	4G/	.
2.D\	4F/	2A/	.
.	4G/	.	.
.	2A/	2D/	.
4E\	.	.	.
2F\	2D/	2d\	.
=154	=154	=154	=154-
!	!	!	!LO:N:vis=1.
2G\	2E/	2B\	[y0e
2A\	2AA/	2c\	.
2G\	2E/	2B\	.
[2A\	2AA/	[2c\	.
=155	=155	=155	=155-
2A\]	2r	2c\]	0e_yy
4G\	2A/	4B\	.
4F\	.	4A/	.
2E\	2G/	2B\	.
2AA/	[2A/	[2c\	.
=156	=156	=156	=156-
2r	2A/]	2c\]	0e]yy
2A\	4G/	4B\	.
.	4F/	4A/	.
2G\	2E/	2B\	.
[2A\	2AA/	[2c\	.
=157	=157	=157	=157-
!	!	!	!LO:N:vis=1.
2A\]	2r	2c\]	[y0e
4G\	2A/	4B\	.
4F\	.	4A/	.
2E\	2G/	2B\	.
2AA/	[2A/	[2c\	.
=158	=158	=158	=158-
2r	2A/]	2c\]	0e_yy
2A\	4G/	4B\	.
.	4F/	4A/	.
2G\	2E/	2B\	.
[2A\	2AA/	[2c\	.
=159	=159	=159	=159-
2A\]	2r	2c\]	0e]yy
4G\	2A/	4B\	.
4F\	.	4A/	.
2E\	2G/	2B\	.
2AA/	[2A/	2c\	.
=160	=160	=160	=160
!	!	!	!LO:N:vis=1.
0D	4A/]	2F/	[y0A
.	4G/	.	.
.	4F/	2.f\	.
.	4E/	.	.
.	2D/	.	.
.	.	4e\	.
.	2F/	[2d\	.
=161	=161	=161	=161-
1AA	1E	2d\]	0A_yy
.	.	2c\	.
2r	1D	2d\	.
[2D\	.	2f\	.
=162	=162	=162	=162-
2D\]	1r	1e	0A]yy
2C/	.	.	.
2D\	2r	1r	.
2F\	[2A/	.	.
=163	=163	=163	=163-
!	!	!	!LO:N:vis=1.
1E	2A/]	1r	[y0e
.	2G/	.	.
1AA	2A/	2r	.
.	[2c\	[2A/	.
=164	=164	=164	=164-
1r	2c\]	2A/]	0e_yy
.	2B\	2G/	.
2r	2c\	1A	.
[2c\	[2A/	.	.
=165	=165	=165	=165-
2c\]	2A/]	1E	0e]yy
2B\	2G/	.	.
2c\	1A	2r	.
[2A\	.	[2c\	.
=166	=166	=166	=166-
!	!	!	!LO:N:vis=1.
2A\]	1E	2c\]	[y0e
2G\	.	2B\	.
1A	2r	2c\	.
.	[2c\	[2A/	.
=167	=167	=167	=167-
1E	2c\]	2A/]	0e_yy
.	2B\	2G/	.
2r	2c\	1A	.
[2c\	[2A/	.	.
=168	=168	=168	=168-
2c\]	2A/]	1E	0e]yy
2B\	2G/	.	.
2c\	1A	2r	.
[2A\	.	[2c\	.
=169	=169	=169	=169
!	!	!	!LO:N:vis=1.
2A\]	1E	2c\]	[y0e
2G\	.	2B\	.
1A	2r	2c\	.
.	[2c\	[2A/	.
=170	=170	=170	=170-
1E	2c\]	2A/]	0e_yy
.	2B\	2G/	.
2r	2c\	2A/	.
[2A\	2A/	[2c\	.
=171	=171	=171	=171-
2A\]	1E	2c\]	0e]yy
2G\	.	2B\	.
2A\	1r	2c\	.
2c\	.	2A/	.
=172	=172	=172	=172-
!	!	!	!LO:N:vis=1.
2B\	1G	2r	[y0d
2G\	.	2B\	.
2r	2F/	2A/	.
[2G\	2G/	[2B\	.
=173	=173	=173	=173-
2G\]	1D	4B\]	0d_yy
.	.	4G/	.
2F\	.	2A/	.
1G	2r	1B	.
.	[2G/	.	.
=174	=174	=174	=174-
1D	2G/]	1A	0d]yy
.	2F/	.	.
2r	1G	2r	.
[2G\	.	[2B\	.
=175	=175	=175	=175-
2G\]	1D	2B\]	0d
2F\	.	2A/	.
2G\	1r	2B\	.
2B-i\	.	2G/	.
=176	=176	=176	=176-
!	!	!	!LO:N:vis=1
2A\	1F	1A	[y0c
2F\	.	.	.
2r	2E/	2G/	.
[2F\	2F/	[2A/	.
=177	=177	=177	=177-
2F\]	1C	4A/]	0c]yy
.	.	4F/	.
2E\	.	2G/	.
2F\	1r	2A/	.
2A\	.	2F/	.
=178	=178	=178	=178
!	!	!	!LO:N:vis=1.
2.G\	1E	2G/	[y0B
.	.	2E/	.
4E\	.	.	.
1E	1G	2r	.
.	.	2e\	.
=179	=179	=179	=179-
2r	2E/	1g	0B_yy
2E\	2G/	.	.
1G	2E/	2r	.
.	[2G/	2e\	.
=180	=180	=180	=180-
2r	4G/]	2.g\	0B]yy
.	4A/	.	.
2E\	2.B\	.	.
.	.	4f\	.
2.G\	.	1d	.
.	4c\	.	.
.	[2d\	.	.
4F\	.	.	.
=181	=181	=181	=181-
!	!	!	!LO:N:vis=1.
1D	2d\]	2r	[y0A
.	2.D/	2d\	.
2r	.	2.f\	.
.	4E/	.	.
2D\	4F/	.	.
.	4G/	4e\	.
=182	=182	=182	=182-
2F\	2A/	2c\	0A_yy
2D\	2F/	2d\	.
2.F\	2D/	2A/	.
.	[2A/	2f\	.
4E\	.	.	.
=183	=183	=183	=183-
2C/	2A/]	4e\	0A_yy
.	.	4d\	.
2D\	2F/	1d	.
1AA	1E	.	.
.	.	2c#i\	.
=184	=184	=184	=184-
0Dl	0Dl	0dl	0A]yy
==	==	==	==
*-	*-	*-	*-
!!!RDF**kern: l=long note in original notation
!!!RDF**kern: i=editorial accidental
!!!ENC:	Jesse Rodin; Victoria Chang 2011/05/16
!!!SMS:	Vat 197
!!!END:	2011/05/16/
!!!EED:	Jesse Rodin
!!!EEV: 2013/10/25/
!!attribution-level@Jos: 1 (secure)
!!!ONB:	Translated from MusicXML and edited on 2011/09/08/ by Craig Sapp
!!muse2ps: T^@{OPR}^u^@{ONM}{. }@{OTL}^C^@{COM}\n@{SCT}^i2I100v92,90,90,150c85Q16
